src/assets/trash.svg

<?xml version="1.0" encoding="UTF-8" standalone="no"?>
<!-- Uploaded to: SVG Repo, www.svgrepo.com, Generator: SVG Repo Mixer Tools -->

<svg
   width="16.25"
   height="20"
   viewBox="-3 0 0.65 0.8"
   version="1.1"
   id="svg120"
   sodipodi:docname="trash.svg"
   inkscape:version="1.1.2 (0a00cf5339, 2022-02-04)"
   xmlns:inkscape="http://www.inkscape.org/namespaces/inkscape"
   xmlns:sodipodi="http://sodipodi.sourceforge.net/DTD/sodipodi-0.dtd"
   xmlns="http://www.w3.org/2000/svg"
   xmlns:svg="http://www.w3.org/2000/svg"
   xmlns:rdf="http://www.w3.org/1999/02/22-rdf-syntax-ns#"
   xmlns:cc="http://creativecommons.org/ns#"
   xmlns:dc="http://purl.org/dc/elements/1.1/"
   xmlns:sketch="http://www.bohemiancoding.com/sketch/ns">
  <sodipodi:namedview
     id="namedview122"
     pagecolor="#505050"
     bordercolor="#ffffff"
     borderopacity="1"
     inkscape:pageshadow="0"
     inkscape:pageopacity="0"
     inkscape:pagecheckerboard="1"
     showgrid="false"
     fit-margin-top="0"
     fit-margin-left="0"
     fit-margin-right="0"
     fit-margin-bottom="0"
     inkscape:zoom="0.8359833"
     inkscape:cx="-2.9904904"
     inkscape:cy="-120.21771"
     inkscape:window-width="1366"
     inkscape:window-height="708"
     inkscape:window-x="0"
     inkscape:window-y="0"
     inkscape:window-maximized="1"
     inkscape:current-layer="svg120" />
  <title
     id="title111">trash</title>
  <desc
     id="desc113">Created with Sketch Beta.</desc>
  <defs
     id="defs115" />
  <g
     id="Page-1"
     stroke="none"
     stroke-width="1"
     fill="none"
     fill-rule="evenodd"
     sketch:type="MSPage"
     transform="matrix(0.025,0,0,0.025,-3,0)">
    <g
       id="Icon-Set"
       sketch:type="MSLayerGroup"
       transform="translate(-259,-203)"
       fill="#000000">
      <path
         d="m 282,211 h -20 c -0.552,0 -1,-0.447 -1,-1 0,-0.552 0.448,-1 1,-1 h 20 c 0.552,0 1,0.448 1,1 0,0.553 -0.448,1 -1,1 z m -1,20 c 0,1.104 -0.896,2 -2,2 h -14 c -1.104,0 -2,-0.896 -2,-2 v -18 h 18 z m -12,-25 c 0,-0.553 0.448,-1 1,-1 h 4 c 0.552,0 1,0.447 1,1 v 1 h -6 z m 14,1 h -6 v -2 c 0,-1.104 -0.896,-2 -2,-2 h -6 c -1.104,0 -2,0.896 -2,2 v 2 h -6 c -1.104,0 -2,0.896 -2,2 v 2 c 0,1.104 0.896,2 2,2 v 18 c 0,2.209 1.791,4 4,4 h 14 c 2.209,0 4,-1.791 4,-4 v -18 c 1.104,0 2,-0.896 2,-2 v -2 c 0,-1.104 -0.896,-2 -2,-2 z m -11,24 c 0.552,0 1,-0.447 1,-1 v -12 c 0,-0.552 -0.448,-1 -1,-1 -0.552,0 -1,0.448 -1,1 v 12 c 0,0.553 0.448,1 1,1 z m -5,0 c 0.552,0 1,-0.447 1,-1 v -12 c 0,-0.552 -0.448,-1 -1,-1 -0.552,0 -1,0.448 -1,1 v 12 c 0,0.553 0.448,1 1,1 z m 10,0 c 0.552,0 1,-0.447 1,-1 v -12 c 0,-0.552 -0.448,-1 -1,-1 -0.552,0 -1,0.448 -1,1 v 12 c 0,0.553 0.448,1 1,1 z"
         id="trash"
         sketch:type="MSShapeGroup" />
    </g>
  </g>
  <metadata
     id="metadata124">
    <rdf:RDF>
      <cc:Work
         rdf:about="">
        <dc:title>trash</dc:title>
      </cc:Work>
    </rdf:RDF>
  </metadata>
</svg>

<?xml version="1.0" encoding="UTF-8" standalone="no"?>
<!-- Uploaded to: SVG Repo, www.svgrepo.com, Generator: SVG Repo Mixer Tools -->
<svg width="800px" height="800px" viewBox="-3 0 32 32" version="1.1" xmlns="http://www.w3.org/2000/svg" xmlns:xlink="http://www.w3.org/1999/xlink" xmlns:sketch="http://www.bohemiancoding.com/sketch/ns">
    
    <title>trash</title>
    <desc>Created with Sketch Beta.</desc>
    <defs>

</defs>
    <g id="Page-1" stroke="none" stroke-width="1" fill="none" fill-rule="evenodd" sketch:type="MSPage">
        <g id="Icon-Set" sketch:type="MSLayerGroup" transform="translate(-259.000000, -203.000000)" fill="#000000">
            <path d="M282,211 L262,211 C261.448,211 261,210.553 261,210 C261,209.448 261.448,209 262,209 L282,209 C282.552,209 283,209.448 283,210 C283,210.553 282.552,211 282,211 L282,211 Z M281,231 C281,232.104 280.104,233 279,233 L265,233 C263.896,233 263,232.104 263,231 L263,213 L281,213 L281,231 L281,231 Z M269,206 C269,205.447 269.448,205 270,205 L274,205 C274.552,205 275,205.447 275,206 L275,207 L269,207 L269,206 L269,206 Z M283,207 L277,207 L277,205 C277,203.896 276.104,203 275,203 L269,203 C267.896,203 267,203.896 267,205 L267,207 L261,207 C259.896,207 259,207.896 259,209 L259,211 C259,212.104 259.896,213 261,213 L261,231 C261,233.209 262.791,235 265,235 L279,235 C281.209,235 283,233.209 283,231 L283,213 C284.104,213 285,212.104 285,211 L285,209 C285,207.896 284.104,207 283,207 L283,207 Z M272,231 C272.552,231 273,230.553 273,230 L273,218 C273,217.448 272.552,217 272,217 C271.448,217 271,217.448 271,218 L271,230 C271,230.553 271.448,231 272,231 L272,231 Z M267,231 C267.552,231 268,230.553 268,230 L268,218 C268,217.448 267.552,217 267,217 C266.448,217 266,217.448 266,218 L266,230 C266,230.553 266.448,231 267,231 L267,231 Z M277,231 C277.552,231 278,230.553 278,230 L278,218 C278,217.448 277.552,217 277,217 C276.448,217 276,217.448 276,218 L276,230 C276,230.553 276.448,231 277,231 L277,231 Z" id="trash" sketch:type="MSShapeGroup">

</path>
        </g>
    </g>
</svg>
